X: 6671
T: Celia Connellan
R: barndance
M: 4/4
K: Dminor
A2|d4 d2 c2|A4 BAGF|G3 A G3 F|G2 A2 c4|
d3 e d3 c|A4 cAGF|F3 G F3 E|D2E2F4||
F2 GA c2 A/G/F|E4 AGFE|D3 E D3C|D2E2F3 E|
DEFG A2 e2|d3 e fedc|A2 GA d2 E2|D3 C D2||

